X: 20705
T: BRITONS TO ARMS
%R: air, march, reel
B: W. Hamilton "Universal Tune-Book" Vol. 2 Glasgow 1846 p.70 #5
S: http://s3-eu-west-1.amazonaws.com/itma.dl.printmaterial/book_pdfs/hamiltonvol2web.pdf
Z: 2016 John Chambers <jc:trillian.mit.edu>
M: 2/4
L: 1/16
K: G
% - - - - - - - - - - - - - - - - - - - - - - - - -
[|\
B4(A3G) | (G2B2)(d2B2) | A2G2 (F2GA) | G4 z2(Bc) |\
d4(d2e2) | c4B4 | (A3G)(F2G2) | A4 z2(Bc) |\
d2d2 d2ed | c2c2 c2dc | B2B2 B2cB | A2A2 A2GA |\
B2d2 (cB)(AG) | c2d2 e2(dc) | B4A4 | G4z4 |]
% - - - - - - - - - - - - - - - - - - - - - - - - -

%%sep 1 1 500
%%sep 1 1 500

